svg/decimal.svg

<svg xmlns="http://www.w3.org/2000/svg" viewBox="0 0 24 24"><path d="M10 7a3 3 0 0 0-3 3v3a3 3 0 0 0 6 0v-3a3 3 0 0 0-3-3m1 6a1 1 0 0 1-2 0v-3a1 1 0 0 1 2 0m6-3a3 3 0 0 0-3 3v3a3 3 0 0 0 6 0v-3a3 3 0 0 0-3-3m1 6a1 1 0 0 1-2 0v-3a1 1 0 0 1 2 0M6 15a1 1 0 1 1-1-1 1 1 0 0 1 1 1"/></svg>

<?xml version="1.0" encoding="UTF-8"?><!DOCTYPE svg PUBLIC "-//W3C//DTD SVG 1.1//EN" "http://www.w3.org/Graphics/SVG/1.1/DTD/svg11.dtd"><svg xmlns="http://www.w3.org/2000/svg" xmlns:xlink="http://www.w3.org/1999/xlink" version="1.1" id="mdi-decimal" width="24" height="24" viewBox="0 0 24 24"><path d="M10 7A3 3 0 0 0 7 10V13A3 3 0 0 0 13 13V10A3 3 0 0 0 10 7M11 13A1 1 0 0 1 9 13V10A1 1 0 0 1 11 10M17 7A3 3 0 0 0 14 10V13A3 3 0 0 0 20 13V10A3 3 0 0 0 17 7M18 13A1 1 0 0 1 16 13V10A1 1 0 0 1 18 10M6 15A1 1 0 1 1 5 14A1 1 0 0 1 6 15Z" /></svg>
